X:39
T: Blue Bonnets 
N: HA039
O: Europa, Mitteleuropa, Deutschland
N: Vorschlge
M: 2/2
L: 1/16
K: C
c2ded2c2d4G2AB | c2B2A2G2A2G2F2E2 |
F3EF2G2F2GAG2F2 | E2FGF2E2D4C4 |
c2ded2c2d4G4 | A3cB3dc3eG4 |
A3cB3dc3ed3f | e4d3cc8 |
c2ded2c2g6B2 | c2B2A2G2d6B2 |
A3GA2B2c4B2A2 | G4F3ED4C4 |
c2_B2A2G2F2G2A2F2 | d2c2B2A2G2A2B2G2 |
A3cB3dc3ed3f | e4d3cc8

@@@ Tune index: 7264
